X:1
T:Title
L:1/8
M:4/4
I:linebreak $
K:D
V:1 treble nm="Fiddle" snm="Fiddle"
V:1
 D"D"FED B,2 B,2 | A,2 A,2 D2 D2 | E2 E2 F2 F2 | EFED B,2 A,2 |$ z2 D=FED B,2 | A,2 A,2 D2 D2 | %6
 d=cdA B2 AG |1 =FDEF D2 D2 :|2 =FDEF D2 de ||$ z2 a2 af g2 | f2 fd e2 A2 | d2 d2 e2 e2 | %12
 f2 f2 e2 de |$ a2 a=f g2 ge | =f2 fd e2 A2 | d=cdA B2 AG |1 =FDEF D2 de :|2 =FDEF D4 |] %18

